weblate/static/icons/thumb-up.svg

<svg width="24" height="24" version="1.1" viewBox="0 0 24 24" xmlns="http://www.w3.org/2000/svg"><path d="m23 10c0-1.11-0.9-2-2-2h-6.32l0.96-4.57c0.02-0.1 0.03-0.21 0.03-0.32 0-0.41-0.17-0.79-0.44-1.06l-1.06-1.05-6.58 6.58c-0.37 0.37-0.59 0.87-0.59 1.42v10a2 2 0 0 0 2 2h9c0.83 0 1.54-0.5 1.84-1.22l3.02-7.05c0.09-0.23 0.14-0.47 0.14-0.73v-2m-22 11h4v-12h-4v12z"/></svg>

<svg xmlns="http://www.w3.org/2000/svg" xmlns:xlink="http://www.w3.org/1999/xlink" width="24" height="24" version="1.1" viewBox="0 0 24 24"><path d="M23,10C23,8.89 22.1,8 21,8H14.68L15.64,3.43C15.66,3.33 15.67,3.22 15.67,3.11C15.67,2.7 15.5,2.32 15.23,2.05L14.17,1L7.59,7.58C7.22,7.95 7,8.45 7,9V19A2,2 0 0,0 9,21H18C18.83,21 19.54,20.5 19.84,19.78L22.86,12.73C22.95,12.5 23,12.26 23,12V10M1,21H5V9H1V21Z"/></svg>
